X:5721
T:Gan Ainm
R:Reel
S:(Sean Smyth)
H:
N:
D:From (unknown) solo recital
Z:Adrian Scahill
M:4/4
L:1/8
K:D
B3c dBcB|BABc dfec|B3c dBB2|ABde fdec:||\
dff2 bfaf|dfaf g2fg|afge d3B|ABde fdec:||


